X:1
T: The Slof Galliard
N:
C:
S:Play  4  times
A:
O:
R:
M:4/4
K:G
I:speed 200
%W: A1
% voice 1 (1 lines, 25 notes)
K:G
M:4/4
L:1/16
G8 B6 c2 |d8 g6 f2 |e4 d4 c4 B4 |A4 G4 F4 D4 |G8 B6 c2 |d8 g6 a2 |b4 g4 a4 f4 |g16 |
%W: A2
% voice 1 (1 lines, 27 notes)
G8 B6 c2 |d8 g6 f2 |e4 d4 c4 B4 |A4 G4 F4 D4 |G8 B6 c2 |d8 g6 a2 |b4 g4 a4 f4 |g12 e2 d2 |
%W: B1
% voice 1 (1 lines, 24 notes)
c4 B4 A4 ^G4 |A8 A4 A2 B2 |c4 B4 A2 B2 c2 d2 |e8 e4 e2 f2 |g4 f4 e4 d4 |a8 B8 |
%W:
% voice 1 (1 lines, 19 notes)
c4 B4 A4 G4 |A8 D8 |G8 B6 c2 |d8 g6 a2 |b4 g4 a4 f4 |g12 e2 d2 |
%W: B2
% voice 1 (1 lines, 24 notes)
c4 B4 A4 ^G4 |A8 A4 A2 B2 |c4 B4 A2 B2 c2 d2 |e8 e4 e2 f2 |g4 f4 e4 d4 |a8 B8 |
%W:
% voice 1 (1 lines, 17 notes)
c4 B4 A4 G4 |A8 D8 |G8 B6 c2 |d8 g6 a2 |b4 g4 a4 f4 |g16 ||
